X: 081
T: Snakes Lane
B: 204 Favourite Country Dances
N: Published by Straight & Skillern, London ca.1775
F: http://imslp.org/wiki/204_Favourite_Country_Dances_(Various) p.41 #81
Z: 2014 John Chambers <jc:trillian.mit.edu>
M: C|
L: 1/8
K: G
% - - - - - - - - - - - - - - - - - - - - - - - - -
|:\
GABc dBAG | DEFG ABdf |\
gbge dedB | BdAc B2GG :|\
|:\
GBAc dedB | GEDB, CEGc |\
egfa fdec | B2TA2 G4 :|
% - - - - - - - - - - - - - - - - - - - - - - - - -
%%begintext align
%% Cast off 2 Cu. .| cast up again :| cross over
%% 2 Cu. :|. lead up & cast off :|: set corners &
%% turn :|| lead outsides :||:
%%endtext

%%sep 1 1 500
%%sep 1 1 500
